icon-themes/breeze_svg/cmd/lc_setborderstyle.svg

<svg viewBox="0 0 24 24" xmlns="http://www.w3.org/2000/svg"><path d="m4 4v16h16v-16zm1 1h14v14h-14z" fill="#f47750"/><path d="m5 5v14h14v-14zm1 1h12v12h-12z" fill="#4d4d4d"/></svg>

<svg xmlns="http://www.w3.org/2000/svg" viewBox="0 0 24 24">
 <path 
     style="fill:#f47750" 
     d="M 4 4 L 4 20 L 20 20 L 20 4 L 4 4 z M 5 5 L 19 5 L 19 19 L 5 19 L 5 5 z "
     />
 <path 
     style="fill:#4d4d4d" 
     d="M 5 5 L 5 19 L 19 19 L 19 5 L 5 5 z M 6 6 L 18 6 L 18 18 L 6 18 L 6 6 z "
     />
 </svg>
